material/.icons/material/biohazard.svg

<svg xmlns="http://www.w3.org/2000/svg" viewBox="0 0 24 24"><path d="M23 16.06c0 .23 0 .44-.04.64-.18-2.56-2.32-4.59-4.96-4.59-.37 0-.73.05-1.08.12.04.27.08.5.08.77 0 2.35-1.69 4.32-3.93 4.81.35 2.24 2.24 3.98 4.58 4.15-.22.04-.43.04-.65.04-2.08 0-3.93-1.06-5-2.66A6.005 6.005 0 017 22c-.22 0-.43 0-.65-.04 2.34-.17 4.22-1.9 4.58-4.15C8.68 17.32 7 15.35 7 13c0-.27.04-.5.07-.77-.34-.07-.7-.12-1.07-.12a4.97 4.97 0 00-4.97 4.59C1 16.5 1 16.29 1 16.06c0-3.21 2.59-5.82 5.81-5.92A5.877 5.877 0 019.06 2C7.81 2.9 7 4.34 7 6c0 1.35.56 2.59 1.47 3.5.91-.91 2.15-1.46 3.53-1.46 1.37 0 2.62.55 3.5 1.46.93-.91 1.5-2.15 1.5-3.5 0-1.66-.82-3.1-2.06-4a5.877 5.877 0 012.25 8.14c3.23.1 5.81 2.71 5.81 5.92M9.27 10.11a5.003 5.003 0 005.46 0C14 9.45 13.06 9.03 12 9.03s-2 .42-2.73 1.08M12 14.47c.82 0 1.5-.67 1.5-1.47a1.5 1.5 0 00-1.5-1.5 1.5 1.5 0 00-1.5 1.5c0 .8.67 1.47 1.5 1.47m-1.03 2.32c-.1-1.89-1.26-3.5-2.92-4.24-.02.15-.05.29-.05.45 0 1.82 1.27 3.34 2.97 3.79m4.99-4.24A4.982 4.982 0 0013 16.79c1.73-.45 3-1.97 3-3.79 0-.16-.03-.3-.04-.45z"/></svg>

<?xml version="1.0" encoding="UTF-8"?><!DOCTYPE svg PUBLIC "-//W3C//DTD SVG 1.1//EN" "http://www.w3.org/Graphics/SVG/1.1/DTD/svg11.dtd"><svg xmlns="http://www.w3.org/2000/svg" xmlns:xlink="http://www.w3.org/1999/xlink" version="1.1" id="mdi-biohazard" width="24" height="24" viewBox="0 0 24 24"><path d="M23,16.06C23,16.29 23,16.5 22.96,16.7C22.78,14.14 20.64,12.11 18,12.11C17.63,12.11 17.27,12.16 16.92,12.23C16.96,12.5 17,12.73 17,13C17,15.35 15.31,17.32 13.07,17.81C13.42,20.05 15.31,21.79 17.65,21.96C17.43,22 17.22,22 17,22C14.92,22 13.07,20.94 12,19.34C10.93,20.94 9.09,22 7,22C6.78,22 6.57,22 6.35,21.96C8.69,21.79 10.57,20.06 10.93,17.81C8.68,17.32 7,15.35 7,13C7,12.73 7.04,12.5 7.07,12.23C6.73,12.16 6.37,12.11 6,12.11C3.36,12.11 1.22,14.14 1.03,16.7C1,16.5 1,16.29 1,16.06C1,12.85 3.59,10.24 6.81,10.14C6.3,9.27 6,8.25 6,7.17C6,4.94 7.23,3 9.06,2C7.81,2.9 7,4.34 7,6C7,7.35 7.56,8.59 8.47,9.5C9.38,8.59 10.62,8.04 12,8.04C13.37,8.04 14.62,8.59 15.5,9.5C16.43,8.59 17,7.35 17,6C17,4.34 16.18,2.9 14.94,2C16.77,3 18,4.94 18,7.17C18,8.25 17.7,9.27 17.19,10.14C20.42,10.24 23,12.85 23,16.06M9.27,10.11C10.05,10.62 11,10.92 12,10.92C13,10.92 13.95,10.62 14.73,10.11C14,9.45 13.06,9.03 12,9.03C10.94,9.03 10,9.45 9.27,10.11M12,14.47C12.82,14.47 13.5,13.8 13.5,13A1.5,1.5 0 0,0 12,11.5A1.5,1.5 0 0,0 10.5,13C10.5,13.8 11.17,14.47 12,14.47M10.97,16.79C10.87,14.9 9.71,13.29 8.05,12.55C8.03,12.7 8,12.84 8,13C8,14.82 9.27,16.34 10.97,16.79M15.96,12.55C14.29,13.29 13.12,14.9 13,16.79C14.73,16.34 16,14.82 16,13C16,12.84 15.97,12.7 15.96,12.55Z" /></svg>
